icons/src/fluent/svg/code_24_filled.svg

<svg width="24" height="24" viewBox="0 0 24 24" fill="none" xmlns="http://www.w3.org/2000/svg">
<path d="M8.08553 18.6112L14.0817 4.60666C14.299 4.09895 14.8868 3.8636 15.3946 4.08097C15.866 4.28283 16.1026 4.80407 15.96 5.284L15.9202 5.39385L9.92409 19.3984C9.70671 19.9061 9.11892 20.1414 8.61121 19.9241C8.13977 19.7222 7.90316 19.201 8.04581 18.721L8.08553 18.6112L14.0817 4.60666L8.08553 18.6112ZM2.29289 11.2931L6.29289 7.29315C6.68342 6.90263 7.31658 6.90263 7.70711 7.29315C8.06759 7.65363 8.09532 8.22087 7.7903 8.61316L7.70711 8.70736L4.41421 12.0003L7.70711 15.2931C8.09763 15.6837 8.09763 16.3168 7.70711 16.7074C7.34662 17.0678 6.77939 17.0956 6.3871 16.7906L6.29289 16.7074L2.29289 12.7074C1.93241 12.3469 1.90468 11.7796 2.2097 11.3874L2.29289 11.2931L6.29289 7.29315L2.29289 11.2931ZM16.2921 7.29191C16.6526 6.93144 17.2198 6.90374 17.6121 7.20878L17.7063 7.29198L21.7071 11.2932C22.0678 11.6538 22.0953 12.2214 21.7899 12.6136L21.7066 12.7078L17.7058 16.7034C17.315 17.0936 16.6818 17.0932 16.2916 16.7024C15.9313 16.3417 15.904 15.7744 16.2093 15.3824L16.2925 15.2882L19.5854 11.9998L16.292 8.70613C15.9015 8.31558 15.9015 7.68242 16.2921 7.29191Z" fill="#212121"/>
</svg>

<svg width="24" height="24" fill="none" viewBox="0 0 24 24" xmlns="http://www.w3.org/2000/svg"><path d="m8.086 18.611 5.996-14.004a1 1 0 0 1 1.878.677l-.04.11-5.996 14.004a1 1 0 0 1-1.878-.677l.04-.11 5.996-14.004L8.086 18.61Zm-5.793-7.318 4-4a1 1 0 0 1 1.497 1.32l-.083.094L4.414 12l3.293 3.293a1 1 0 0 1-1.32 1.498l-.094-.084-4-4a1 1 0 0 1-.083-1.32l.083-.094 4-4-4 4Zm14-4.001a1 1 0 0 1 1.32-.083l.093.083 4.001 4.001a1 1 0 0 1 .083 1.32l-.083.095-4.001 3.995a1 1 0 0 1-1.497-1.32l.084-.095L19.584 12l-3.293-3.294a1 1 0 0 1 0-1.414Z" fill="#212121"/></svg>
